svg/business/filter_3_line.svg

<?xml version="1.0" encoding="UTF-8"?>
<svg width="24px" height="24px" viewBox="0 0 24 24" version="1.1" xmlns="http://www.w3.org/2000/svg" xmlns:xlink="http://www.w3.org/1999/xlink">
    <title>filter_3_line</title>
    <g id="页面-1" stroke="none" stroke-width="1" fill="none" fill-rule="evenodd">
        <g id="Business" transform="translate(-816.000000, -192.000000)">
            <g id="filter_3_line" transform="translate(816.000000, 192.000000)">
                <path d="M24,0 L24,24 L0,24 L0,0 L24,0 Z M12.5934901,23.257841 L12.5819402,23.2595131 L12.5108777,23.2950439 L12.4918791,23.2987469 L12.4918791,23.2987469 L12.4767152,23.2950439 L12.4056548,23.2595131 C12.3958229,23.2563662 12.3870493,23.2590235 12.3821421,23.2649074 L12.3780323,23.275831 L12.360941,23.7031097 L12.3658947,23.7234994 L12.3769048,23.7357139 L12.4804777,23.8096931 L12.4953491,23.8136134 L12.4953491,23.8136134 L12.5071152,23.8096931 L12.6106902,23.7357139 L12.6232938,23.7196733 L12.6232938,23.7196733 L12.6266527,23.7031097 L12.609561,23.275831 C12.6075724,23.2657013 12.6010112,23.2592993 12.5934901,23.257841 L12.5934901,23.257841 Z M12.8583906,23.1452862 L12.8445485,23.1473072 L12.6598443,23.2396597 L12.6498822,23.2499052 L12.6498822,23.2499052 L12.6471943,23.2611114 L12.6650943,23.6906389 L12.6699349,23.7034178 L12.6699349,23.7034178 L12.678386,23.7104931 L12.8793402,23.8032389 C12.8914285,23.8068999 12.9022333,23.8029875 12.9078286,23.7952264 L12.9118235,23.7811639 L12.8776777,23.1665331 C12.8752882,23.1545897 12.8674102,23.1470016 12.8583906,23.1452862 L12.8583906,23.1452862 Z M12.1430473,23.1473072 C12.1332178,23.1423925 12.1221763,23.1452606 12.1156365,23.1525954 L12.1099173,23.1665331 L12.0757714,23.7811639 C12.0751323,23.7926639 12.0828099,23.8018602 12.0926481,23.8045676 L12.108256,23.8032389 L12.3092106,23.7104931 L12.3186497,23.7024347 L12.3186497,23.7024347 L12.3225043,23.6906389 L12.340401,23.2611114 L12.337245,23.2485176 L12.337245,23.2485176 L12.3277531,23.2396597 L12.1430473,23.1473072 Z" id="MingCute" fill-rule="nonzero"></path>
                <path d="M5,6 C5,6.58478 6.3006,7.03736 6.69427,7.18499 C8.0034,7.67591 9.87903,8 12,8 C14.121,8 15.9966,7.67591 17.3057,7.18499 C17.6994,7.03736 19,6.58478 19,6 C19,5.41522 17.6994,4.96264 17.3057,4.81501 C15.9966,4.32409 14.121,4 12,4 C9.87903,4 8.0034,4.32409 6.69427,4.81501 C6.3006,4.96264 5,5.41522 5,6 Z M18.5474,8.83654 C18.3728,8.91475 18.1926,8.98841 18.008,9.05765 C16.4217,9.65251 14.2973,10 12,10 C9.70269,10 7.57833,9.65251 5.99202,9.05765 C5.80737,8.98841 5.62716,8.91475 5.45264,8.83654 C6.18824,11.0498 7.75497,12.77 9.66547,13.5437 C10.3997,13.841 11,14.5583 11,15.468 L11,19.7192 L13,19.2192 L13,15.468 C13,14.5583 13.6003,13.841 14.3345,13.5437 C16.245,12.77 17.8118,11.0498 18.5474,8.83654 Z M3,6 C3,10.2639 5.41352,13.9796 8.91476,15.3974 C8.95284,15.4128 8.97854,15.436 8.9915,15.4538 C8.99723,15.4616 8.99932,15.4665 9,15.4688 L9,19.7192 C9,21.0204 10.2228,21.9751 11.4851,21.6595 L13.4851,21.1595 C14.3754,20.9369 15,20.137 15,19.2192 L15,15.4688 C15.0007,15.4665 15.0028,15.4616 15.0085,15.4538 C15.0215,15.436 15.0472,15.4128 15.0852,15.3974 C18.5865,13.9796 21,10.2639 21,6 C21,5.19711 20.5625,4.55194 20.0347,4.08401 C19.5058,3.61504 18.7974,3.2384 18.008,2.94235 C16.4217,2.34749 14.2973,2 12,2 C9.70269,2 7.57833,2.34749 5.99202,2.94235 C5.20256,3.2384 4.49422,3.61504 3.96527,4.08401 C3.43749,4.55194 3,5.19711 3,6 Z" id="形状" fill="#09244B"></path>
            </g>
        </g>
    </g>
</svg>

<svg xmlns="http://www.w3.org/2000/svg" width="24" height="24"><g fill="none" fill-rule="evenodd"><path d="M24 0v24H0V0zM12.593 23.258l-.011.002-.071.035-.02.004-.014-.004-.071-.035c-.01-.004-.019-.001-.024.005l-.004.01-.017.428.005.02.01.013.104.074.015.004.012-.004.104-.074.012-.016.004-.017-.017-.427c-.002-.01-.009-.017-.017-.018m.265-.113-.013.002-.185.093-.01.01-.003.011.018.43.005.012.008.007.201.093c.012.004.023 0 .029-.008l.004-.014-.034-.614c-.003-.012-.01-.02-.02-.022m-.715.002a.023.023 0 0 0-.027.006l-.006.014-.034.614c0 .012.007.02.017.024l.015-.002.201-.093.01-.008.004-.011.017-.43-.003-.012-.01-.01z"/><path fill="#09244B" d="M5 6c0 .585 1.3 1.037 1.694 1.185C8.004 7.675 9.88 8 12 8s3.997-.324 5.306-.815C17.699 7.037 19 6.585 19 6c0-.585-1.3-1.037-1.694-1.185C15.996 4.325 14.12 4 12 4s-3.997.324-5.306.815C6.301 4.963 5 5.415 5 6m13.547 2.837a9.37 9.37 0 0 1-.539.22C16.422 9.654 14.298 10 12 10c-2.297 0-4.422-.347-6.008-.942a9.33 9.33 0 0 1-.54-.221c.736 2.213 2.303 3.933 4.213 4.707C10.4 13.84 11 14.558 11 15.468v4.251l2-.5v-3.751c0-.91.6-1.627 1.335-1.924 1.91-.774 3.477-2.494 4.212-4.707M3 6c0 4.264 2.414 7.98 5.915 9.397a.18.18 0 0 1 .077.057.053.053 0 0 1 .008.015v4.25a2 2 0 0 0 2.485 1.94l2-.5A2 2 0 0 0 15 19.22v-3.75l.008-.015a.18.18 0 0 1 .077-.057C18.587 13.98 21 10.264 21 6c0-.803-.437-1.448-.965-1.916-.53-.469-1.238-.846-2.027-1.142C16.422 2.347 14.298 2 12 2c-2.297 0-4.422.347-6.008.942-.79.296-1.498.673-2.027 1.142C3.437 4.552 3 5.197 3 6"/></g></svg>
